setcolor 4
scale 50
for ["x 0 10 0.1] [setxy :x 10 home]
for ["y 0 10 0.1] [setxy 10 (10-:y) home]
for ["y 0 10 0.1] [setxy 10 -:y home]
for ["x 0 10 0.1] [setxy (10-:x) -10 home]
for ["x 0 10 0.1] [setxy -:x -10 home]
for ["y 0 10 0.1] [setxy -10 (-10 + :y) home]
for ["y 0 10 0.1] [setxy -10 :y home]
for ["x 0 10 0.1] [setxy (-10 + :x) 10 home]
print "listo